packages/icons/src/SVG/globe-solid.svg

<svg width="12" height="12" viewBox="0 0 12 12" >
<path d="M6.04071 10.8017C6.82592 9.88112 7.36728 8.94097 7.67662 8H4.35519C4.68031 8.94162 5.23819 9.88178 6.04071 10.8017Z" />
<path d="M7.91864 7C7.96583 6.69719 7.98935 6.39498 7.98958 6.094C7.98985 5.73075 7.95622 5.36572 7.8879 5H4.09523C4.03824 5.33413 4.01017 5.66762 4.01042 5.99961C4.01068 6.33185 4.0393 6.6656 4.09684 7H7.91864Z" />
<path d="M7.61435 4C7.28564 3.08946 6.73789 2.18089 5.95915 1.29126C5.19732 2.18151 4.6657 3.09006 4.35236 4H7.61435Z" />
<path fill-rule="evenodd" clip-rule="evenodd" d="M12 6C12 9.31371 9.31371 12 6 12C2.68629 12 0 9.31371 0 6C0 2.68629 2.68629 0 6 0C9.31371 0 12 2.68629 12 6ZM3.01042 6.00038C3.01017 5.66564 3.03437 5.33198 3.08269 5H1.10002C1.17062 4.6522 1.27732 4.3175 1.41604 4H3.30258C3.5905 3.02365 4.08928 2.06752 4.79025 1.14734C5.17763 1.05109 5.58285 1 6 1C6.38519 1 6.7602 1.04356 7.12038 1.12601C7.84531 2.05208 8.36447 3.01548 8.66891 4H10.584C10.7227 4.3175 10.8294 4.6522 10.9 5H8.90291C8.96082 5.3631 8.98986 5.72829 8.98958 6.09477C8.98934 6.39755 8.96911 6.69944 8.92913 7H10.9C10.8294 7.3478 10.7227 7.6825 10.584 8H8.72214C8.44952 8.96804 7.97054 9.91672 7.29463 10.8308C6.8817 10.9412 6.44772 11 6 11C5.58387 11 5.17961 10.9492 4.7931 10.8534C4.0933 9.933 3.59407 8.97663 3.30512 8H1.41604C1.27732 7.6825 1.17062 7.3478 1.10002 7H3.08408C3.03535 6.66827 3.01068 6.33487 3.01042 6.00038Z" />
</svg>

<!-- Generated by IcoMoon.io -->
<svg version="1.1" xmlns="http://www.w3.org/2000/svg" width="12" height="12" viewBox="0 0 12 12">
<title>globe-solid</title>
<path d="M6.041 10.802c0.785-0.921 1.327-1.861 1.636-2.802h-3.321c0.325 0.942 0.883 1.882 1.686 2.802z"></path>
<path d="M7.919 7c0.047-0.303 0.071-0.605 0.071-0.906 0-0.363-0.033-0.728-0.102-1.094h-3.793c-0.057 0.334-0.085 0.668-0.085 1s0.029 0.666 0.086 1h3.822z"></path>
<path d="M7.614 4c-0.329-0.911-0.876-1.819-1.655-2.709-0.762 0.89-1.293 1.799-1.607 2.709h3.262z"></path>
<path d="M12 6c0-3.314-2.686-6-6-6s-6 2.686-6 6c0 3.314 2.686 6 6 6s6-2.686 6-6zM3.010 6c-0-0.335 0.024-0.668 0.072-1h-1.983c0.071-0.348 0.177-0.682 0.316-1h1.887c0.288-0.976 0.787-1.932 1.488-2.853 0.387-0.096 0.793-0.147 1.21-0.147 0.385 0 0.76 0.044 1.12 0.126 0.725 0.926 1.244 1.889 1.549 2.874h1.915c0.139 0.317 0.245 0.652 0.316 1h-1.997c0.058 0.363 0.087 0.728 0.087 1.095-0 0.303-0.020 0.605-0.060 0.905h1.971c-0.071 0.348-0.177 0.682-0.316 1h-1.862c-0.273 0.968-0.752 1.917-1.428 2.831-0.413 0.11-0.847 0.169-1.295 0.169-0.416 0-0.82-0.051-1.207-0.147-0.7-0.92-1.199-1.877-1.488-2.853h-1.889c-0.139-0.317-0.245-0.652-0.316-1h1.984c-0.049-0.332-0.073-0.665-0.074-1z"></path>
</svg>
